X:39
T:Champion's Hornpipe, The 1b
R:hp 32
B:Honeyman's (19th Century Fiddle Tutor)
M:4/4
L:1/8
Q:2/4=90
K:G
|:EFGA Be2B|cBA/B/c Be2B|cBAc BAGB|AGFG E2D2|
EFGA Be2B|cBA/B/c Be2B|cBAc BAGB|AGFG E2D2:|]
|:dded BG2z|ggag ec2z|DEFG ABcd|ed^cd B4|
dded BG2z|ggag ec2z|DEFG ABcd|ed^cd G4:|]

